X:12
T:Sporting Nell -> Fisherman's Lilt (x2)
R:reel
M:2/2
Q:1/2=100
%
% tick
%
K:Dmix
| C8 | C4 C4 |
%
% Sporting Nell (x1)
%
% #1
K:Dmix
|: ADED A2dc | ABAG EFG2 | ADED A2dc |1 AcGE EDEG :|2 AcGE EDD2 | 
K:Amix
  cdec d2ed | cdef gedB | cdec dfed | cAGE EDD2 |
  cdec dfed | cdef g2gd | eaag efd=c | ABAG EFG2 ||
%
% Fisherman's Lilt (x2)
%
K:C
% #1
|: GGGE GAcd | edcB cAAA | GEEE GAcd |1 edcB c3A :|2 edcB c3d | 
|: eggg ageg | gede cAAA | eggg eaaa | gaag a3g | 
   eggg ageg | gede cAAA | GEEE GAcd |1 edcB c3d :|2 edcB c3A |
% #2
|: GGGE GAcd | edcB cAAA | GEEE GAcd |1 edcB c3A :|2 edcB c3d | 
|: eggg ageg | gede cAAA | eggg eaaa | gaag a3g | 
   eggg ageg | gede cAAA | GEEE GAcd |1 edcB c3d :|2 edcB c3A |

